X: 100
T:Fearghal  Gadhra
T:Faral O'Gara
M:4/4
L:1/8
R:Reel
K:D
A,D~D2 A,DFA|BFAF E2FA|dBcA BdAF|GEFD EDB,D|!
A,D~D2 A,DFA|BFAF E2FA|d2cA BdAF|GFEG FDD2:|]!
fd~d2 fdge|fdgf edBc|dBBA Bcde|fdgf e2de|!
fd~d2 fdge|fdgf edBc|dBBA BdAF|GFEG FDD2||!
fd~d2 fdge|fdgf edBc|dBBA Bcde|fagf e2de|!
fgaf edBc|defd BAFD|A,D~D2 A,DFA|BFAF D3z|]!
